assets/Kimono/Flat/kimono_flat.svg

<svg width="32" height="32" viewBox="0 0 32 32" fill="none" xmlns="http://www.w3.org/2000/svg">
<path d="M12.4485 5.00214H19.52V12.0737H12.4485V5.00214Z" fill="#433B6B"/>
<path d="M15.9935 8.31527L14 5H11.14C9.74 5 8.36 5.33 7.11 5.98L3 8.09C2.94384 8.12063 2.88573 8.15078 2.82707 8.1812C2.42617 8.38915 2 8.6102 2 9.09V14.6C2 18.47 5.14 21.61 9.01 21.61V12.65H23V18H9.01001V30.2H23.03V21.6299C26.8862 21.6138 30.01 18.48 30.01 14.62V9.2C30.01 8.75253 29.785 8.6294 29.3456 8.38903C29.245 8.33394 29.133 8.27271 29.01 8.2L24.78 5.95C23.61 5.32 22.31 5 20.99 5H18L15.9935 8.31527Z" fill="#00A6ED"/>
<path d="M23.01 12H8.98999V18H23.01V12Z" fill="#433B6B"/>
<path d="M27.03 8.89471L27.22 8.55471C27.34 8.33471 27.66 8.33471 27.79 8.55471L27.97 8.89471C28 8.94471 28.04 8.99471 28.1 9.02471L28.44 9.21471C28.66 9.34471 28.66 9.66471 28.44 9.78471L28.1 9.96471C28.04 9.99471 28 10.0347 27.96 10.0947L27.78 10.4347C27.65 10.6547 27.33 10.6547 27.21 10.4347L27.03 10.0947C27 10.0347 26.96 9.99471 26.9 9.95471L26.56 9.77471C26.34 9.64471 26.34 9.32471 26.56 9.20471L26.9 9.02471C26.96 8.99471 27 8.94471 27.03 8.89471ZM4.78002 8.55507L4.97002 8.89508C5.00002 8.94508 5.04002 8.99508 5.10002 9.02508L5.44002 9.20507C5.66002 9.32507 5.66002 9.64508 5.44002 9.77508L5.10002 9.96507C5.04002 9.99507 5.00002 10.0351 4.97002 10.0951L4.78002 10.4251C4.66002 10.6451 4.34002 10.6451 4.21002 10.4251L4.03002 10.0951C4.00002 10.0351 3.96002 9.99507 3.90002 9.96507L3.56002 9.77508C3.34002 9.65508 3.34002 9.33507 3.56002 9.20507L3.90002 9.02508C3.96002 8.99508 4.00002 8.94508 4.03002 8.89508L4.21002 8.55507C4.34002 8.33507 4.66002 8.33507 4.78002 8.55507ZM6.78856 11.5636L6.97856 11.9036C7.00856 11.9536 7.04856 12.0036 7.10856 12.0336L7.44856 12.2136C7.66856 12.3336 7.66856 12.6536 7.44856 12.7836L7.10856 12.9736C7.04856 13.0036 7.00856 13.0436 6.97856 13.1036L6.78856 13.4336C6.66856 13.6536 6.34856 13.6536 6.21856 13.4336L6.03856 13.1036C6.00856 13.0436 5.96856 13.0036 5.90856 12.9736L5.56856 12.7836C5.34856 12.6636 5.34856 12.3436 5.56856 12.2136L5.90856 12.0336C5.96856 12.0036 6.00856 11.9536 6.03856 11.9036L6.21856 11.5636C6.34856 11.3436 6.66856 11.3436 6.78856 11.5636ZM4.96002 14.9127L4.78002 14.5727C4.66002 14.3527 4.34002 14.3527 4.21002 14.5727L4.03002 14.9127C4.00002 14.9627 3.96002 15.0127 3.90002 15.0527L3.56002 15.2327C3.34002 15.3627 3.34002 15.6827 3.56002 15.8027L3.90002 15.9827C3.96002 16.0127 4.00002 16.0527 4.03002 16.1127L4.22002 16.4527C4.35002 16.6727 4.67002 16.6727 4.79002 16.4527L4.97002 16.1127C5.00002 16.0527 5.04002 16.0127 5.10002 15.9827L5.44002 15.7927C5.66002 15.6627 5.66002 15.3427 5.44002 15.2227L5.10002 15.0427C5.04002 15.0127 5.00002 14.9627 4.96002 14.9127ZM6.79247 17.5663L6.97247 17.9063C7.00247 17.9563 7.04247 18.0063 7.10247 18.0363L7.44247 18.2163C7.66247 18.3363 7.66247 18.6563 7.44247 18.7863L7.11247 18.9663C7.06247 18.9963 7.01247 19.0363 6.98247 19.0963L6.79247 19.4363C6.67247 19.6563 6.35247 19.6563 6.22247 19.4363L6.04247 19.0963C6.01247 19.0463 5.97247 18.9963 5.91247 18.9663L5.57247 18.7863C5.35247 18.6663 5.35247 18.3463 5.57247 18.2163L5.91247 18.0363C5.96247 18.0063 6.01247 17.9663 6.04247 17.9063L6.22247 17.5663C6.35247 17.3363 6.67247 17.3363 6.79247 17.5663ZM25.2153 11.5595L25.0253 11.8995C24.9953 11.9495 24.9553 11.9995 24.8953 12.0295L24.5553 12.2095C24.3353 12.3295 24.3353 12.6495 24.5553 12.7795L24.8953 12.9595C24.9553 12.9995 24.9953 13.0395 25.0253 13.0995L25.2053 13.4395C25.3253 13.6595 25.6453 13.6595 25.7753 13.4395L25.9553 13.0995C25.9953 13.0395 26.0353 12.9995 26.0953 12.9695L26.4353 12.7895C26.6553 12.6695 26.6553 12.3495 26.4353 12.2195L26.0953 12.0295C26.0353 11.9995 25.9953 11.9495 25.9653 11.8995L25.7853 11.5595C25.6553 11.3395 25.3353 11.3395 25.2153 11.5595ZM27.04 14.9186L27.22 14.5786C27.34 14.3586 27.66 14.3586 27.79 14.5786L27.97 14.9186C28 14.9786 28.05 15.0186 28.1 15.0486L28.44 15.2286C28.66 15.3586 28.66 15.6786 28.44 15.7986L28.1 15.9786C28.04 16.0086 28 16.0586 27.97 16.1086L27.79 16.4486C27.66 16.6686 27.34 16.6686 27.22 16.4486L27.04 16.1086C27.01 16.0486 26.96 16.0086 26.91 15.9786L26.57 15.7986C26.35 15.6686 26.35 15.3486 26.57 15.2286L26.91 15.0486C26.97 15.0186 27.01 14.9686 27.04 14.9186ZM25.2167 17.5647L25.0367 17.9047C25.0067 17.9547 24.9667 18.0047 24.9067 18.0347L24.5667 18.2147C24.3467 18.3347 24.3467 18.6547 24.5667 18.7847L24.9067 18.9647C24.9567 18.9947 25.0067 19.0347 25.0367 19.0947L25.2167 19.4347C25.3367 19.6547 25.6567 19.6547 25.7867 19.4347L25.9667 19.0947C25.9967 19.0447 26.0367 18.9947 26.0967 18.9647L26.4367 18.7847C26.6567 18.6647 26.6567 18.3447 26.4367 18.2147L26.0967 18.0347C26.0467 18.0047 25.9967 17.9647 25.9667 17.9047L25.7867 17.5647C25.6667 17.3347 25.3367 17.3347 25.2167 17.5647ZM19.96 20.957L19.78 20.617C19.66 20.387 19.34 20.387 19.22 20.617L19.04 20.957C19.01 21.017 18.96 21.057 18.91 21.087L18.57 21.267C18.35 21.397 18.35 21.717 18.57 21.837L18.91 22.017C18.97 22.047 19.01 22.097 19.04 22.147L19.22 22.487C19.35 22.707 19.67 22.707 19.79 22.487L19.97 22.147C20 22.087 20.05 22.047 20.1 22.017L20.43 21.837C20.65 21.707 20.65 21.387 20.43 21.267L20.09 21.087C20.03 21.057 19.99 21.007 19.96 20.957ZM16.28 23.94L16.46 24.28C16.49 24.33 16.53 24.38 16.59 24.41L16.93 24.59C17.15 24.71 17.15 25.03 16.93 25.16L16.59 25.34C16.54 25.37 16.49 25.41 16.46 25.47L16.28 25.81C16.16 26.03 15.84 26.03 15.71 25.81L15.53 25.47C15.5 25.42 15.46 25.37 15.4 25.34L15.06 25.16C14.84 25.04 14.84 24.72 15.06 24.59L15.4 24.41C15.45 24.38 15.5 24.34 15.53 24.28L15.71 23.94C15.84 23.71 16.16 23.71 16.28 23.94ZM12.96 20.9033L12.78 20.5633C12.66 20.3433 12.34 20.3433 12.21 20.5733L12.03 20.9133C12 20.9733 11.95 21.0133 11.9 21.0433L11.56 21.2233C11.34 21.3533 11.34 21.6733 11.56 21.7933L11.9 21.9733C11.96 22.0033 12 22.0433 12.03 22.0933L12.21 22.4333C12.34 22.6533 12.66 22.6533 12.78 22.4333L12.96 22.0933C12.99 22.0333 13.04 21.9933 13.09 21.9633L13.43 21.7833C13.65 21.6533 13.65 21.3333 13.43 21.2133L13.09 21.0333C13.03 21.0033 12.99 20.9533 12.96 20.9033ZM19.7917 26.577L19.9717 26.917C20.0017 26.967 20.0417 27.017 20.1017 27.047L20.4417 27.227C20.6617 27.347 20.6617 27.667 20.4417 27.797L20.1017 27.977C20.0517 28.007 20.0017 28.047 19.9717 28.107L19.7917 28.447C19.6717 28.667 19.3517 28.667 19.2217 28.447L19.0417 28.107C19.0117 28.057 18.9717 28.007 18.9117 27.977L18.5717 27.797C18.3517 27.677 18.3517 27.357 18.5717 27.227L18.9117 27.047C18.9617 27.017 19.0117 26.977 19.0417 26.917L19.2217 26.577C19.3517 26.357 19.6717 26.357 19.7917 26.577ZM12.96 26.917L12.78 26.577C12.66 26.357 12.34 26.357 12.21 26.587L12.03 26.927C12 26.987 11.95 27.027 11.9 27.057L11.56 27.237C11.34 27.367 11.34 27.687 11.56 27.807L11.9 27.987C11.96 28.017 12 28.057 12.03 28.107L12.21 28.447C12.34 28.667 12.66 28.667 12.78 28.447L12.96 28.107C12.99 28.047 13.04 28.007 13.09 27.977L13.43 27.797C13.65 27.667 13.65 27.347 13.43 27.227L13.09 27.047C13.03 27.017 12.99 26.967 12.96 26.917Z" fill="#FF6DC6"/>
<path d="M15.9882 8.31213L14.0039 5H12.46L15.2189 9.57881L13.7498 11.9975H15.2567L19.52 5H18L15.9882 8.31213Z" fill="#D3D3D3"/>
<path d="M9.00984 21.6082V11.0061C9.00984 10.3001 7.99878 10.3135 7.99878 11.0061V21.5348C8.14142 21.5593 8.54332 21.6082 9.00984 21.6082ZM23 21.6082V11.0061C23 10.3001 24 10.3135 24 11.0061V21.5348C23.8589 21.5593 23.4614 21.6082 23 21.6082Z" fill="#0074BA"/>
</svg>

<svg xmlns="http://www.w3.org/2000/svg" width="32" height="32" fill="none"><path fill="#433B6B" d="M12.448 5.002h7.072v7.072h-7.072V5.002Z"/><path fill="#00A6ED" d="M15.993 8.315 14 5h-2.86c-1.4 0-2.78.33-4.03.98L3 8.09l-.173.091c-.4.208-.827.43-.827.909v5.51c0 3.87 3.14 7.01 7.01 7.01v-8.96H23V18H9.01v12.2h14.02v-8.57a7.012 7.012 0 0 0 6.98-7.01V9.2c0-.447-.225-.57-.664-.811-.101-.055-.213-.116-.336-.189l-4.23-2.25A7.98 7.98 0 0 0 20.99 5H18l-2.007 3.315Z"/><path fill="#433B6B" d="M23.01 12H8.99v6h14.02v-6Z"/><path fill="#FF6DC6" d="m27.03 8.895.19-.34c.12-.22.44-.22.57 0l.18.34c.03.05.07.1.13.13l.34.19c.22.13.22.45 0 .57l-.34.18c-.06.03-.1.07-.14.13l-.18.34c-.13.22-.45.22-.57 0l-.18-.34a.348.348 0 0 0-.13-.14l-.34-.18c-.22-.13-.22-.45 0-.57l.34-.18c.06-.03.1-.08.13-.13Zm-22.25-.34.19.34c.03.05.07.1.13.13l.34.18c.22.12.22.44 0 .57l-.34.19c-.06.03-.1.07-.13.13l-.19.33c-.12.22-.44.22-.57 0l-.18-.33a.274.274 0 0 0-.13-.13l-.34-.19c-.22-.12-.22-.44 0-.57l.34-.18c.06-.03.1-.08.13-.13l.18-.34c.13-.22.45-.22.57 0Zm2.009 3.009.19.34c.03.05.07.1.13.13l.34.18c.22.12.22.44 0 .57l-.34.19c-.06.03-.1.07-.13.13l-.19.33c-.12.22-.44.22-.57 0l-.18-.33a.274.274 0 0 0-.13-.13l-.34-.19c-.22-.12-.22-.44 0-.57l.34-.18c.06-.03.1-.08.13-.13l.18-.34c.13-.22.45-.22.57 0ZM4.96 14.913l-.18-.34c-.12-.22-.44-.22-.57 0l-.18.34c-.03.05-.07.1-.13.14l-.34.18c-.22.13-.22.45 0 .57l.34.18c.06.03.1.07.13.13l.19.34c.13.22.45.22.57 0l.18-.34c.03-.06.07-.1.13-.13l.34-.19c.22-.13.22-.45 0-.57l-.34-.18c-.06-.03-.1-.08-.14-.13Zm1.832 2.653.18.34c.03.05.07.1.13.13l.34.18c.22.12.22.44 0 .57l-.33.18c-.05.03-.1.07-.13.13l-.19.34c-.12.22-.44.22-.57 0l-.18-.34a.325.325 0 0 0-.13-.13l-.34-.18c-.22-.12-.22-.44 0-.57l.34-.18c.05-.03.1-.07.13-.13l.18-.34c.13-.23.45-.23.57 0Zm18.423-6.006-.19.34c-.03.05-.07.1-.13.13l-.34.18c-.22.12-.22.44 0 .57l.34.18c.06.04.1.08.13.14l.18.34c.12.22.44.22.57 0l.18-.34c.04-.06.08-.1.14-.13l.34-.18c.22-.12.22-.44 0-.57l-.34-.19a.325.325 0 0 1-.13-.13l-.18-.34c-.13-.22-.45-.22-.57 0Zm1.825 3.359.18-.34c.12-.22.44-.22.57 0l.18.34c.03.06.08.1.13.13l.34.18c.22.13.22.45 0 .57l-.34.18c-.06.03-.1.08-.13.13l-.18.34c-.13.22-.45.22-.57 0l-.18-.34a.325.325 0 0 0-.13-.13l-.34-.18c-.22-.13-.22-.45 0-.57l.34-.18c.06-.03.1-.08.13-.13Zm-1.823 2.646-.18.34c-.03.05-.07.1-.13.13l-.34.18c-.22.12-.22.44 0 .57l.34.18c.05.03.1.07.13.13l.18.34c.12.22.44.22.57 0l.18-.34c.03-.05.07-.1.13-.13l.34-.18c.22-.12.22-.44 0-.57l-.34-.18a.325.325 0 0 1-.13-.13l-.18-.34a.322.322 0 0 0-.57 0Zm-5.257 3.392-.18-.34a.313.313 0 0 0-.56 0l-.18.34c-.03.06-.08.1-.13.13l-.34.18c-.22.13-.22.45 0 .57l.34.18c.06.03.1.08.13.13l.18.34c.13.22.45.22.57 0l.18-.34c.03-.06.08-.1.13-.13l.33-.18c.22-.13.22-.45 0-.57l-.34-.18a.325.325 0 0 1-.13-.13Zm-3.68 2.983.18.34c.03.05.07.1.13.13l.34.18c.22.12.22.44 0 .57l-.34.18c-.05.03-.1.07-.13.13l-.18.34c-.12.22-.44.22-.57 0l-.18-.34a.325.325 0 0 0-.13-.13l-.34-.18c-.22-.12-.22-.44 0-.57l.34-.18c.05-.03.1-.07.13-.13l.18-.34c.13-.23.45-.23.57 0Zm-3.32-3.037-.18-.34c-.12-.22-.44-.22-.57.01l-.18.34c-.03.06-.08.1-.13.13l-.34.18c-.22.13-.22.45 0 .57l.34.18c.06.03.1.07.13.12l.18.34c.13.22.45.22.57 0l.18-.34c.03-.06.08-.1.13-.13l.34-.18c.22-.13.22-.45 0-.57l-.34-.18a.325.325 0 0 1-.13-.13Zm6.832 5.674.18.34c.03.05.07.1.13.13l.34.18c.22.12.22.44 0 .57l-.34.18c-.05.03-.1.07-.13.13l-.18.34c-.12.22-.44.22-.57 0l-.18-.34a.325.325 0 0 0-.13-.13l-.34-.18c-.22-.12-.22-.44 0-.57l.34-.18c.05-.03.1-.07.13-.13l.18-.34c.13-.22.45-.22.57 0Zm-6.832.34-.18-.34c-.12-.22-.44-.22-.57.01l-.18.34c-.03.06-.08.1-.13.13l-.34.18c-.22.13-.22.45 0 .57l.34.18c.06.03.1.07.13.12l.18.34c.13.22.45.22.57 0l.18-.34c.03-.06.08-.1.13-.13l.34-.18c.22-.13.22-.45 0-.57l-.34-.18a.325.325 0 0 1-.13-.13Z"/><path fill="#D3D3D3" d="M15.988 8.312 14.004 5H12.46l2.759 4.579-1.47 2.418h1.508L19.52 5H18l-2.012 3.312Z"/><path fill="#0074BA" d="M9.01 21.608V11.006c0-.706-1.011-.693-1.011 0v10.529a6.76 6.76 0 0 0 1.01.073Zm13.99 0V11.006c0-.706 1-.693 1 0v10.529a6.614 6.614 0 0 1-1 .073Z"/></svg>
